X: 91
T:Broken Pledge, The
M:C|
L:1/8
R:Reel
K:DDor
dcAG ADDB|cAGF ECCE|DEFG Addc|AcGc Aefe|!
dcAG FGAB|c2Bd cAGE|DEFG Addc|A2GE FDD2:|!
|:dcAG Acde|~f3d ecAB|cAGE GAcd|ec~c2 eage|!
dcAG Acde|f2df ecAG|~F3G Addc|A2GE FDD2:|]!
